assets/img/icons/duotone-icons/Devices/Tablet.svg

<?xml version="1.0" encoding="UTF-8"?>
<svg width="24px" height="24px" viewBox="0 0 24 24" version="1.1" xmlns="http://www.w3.org/2000/svg" xmlns:xlink="http://www.w3.org/1999/xlink">
    <!-- Generator: Sketch 52.2 (67145) - http://www.bohemiancoding.com/sketch -->
    <title>Stockholm-icons / Devices / Tablet</title>
    <desc>Created with Sketch.</desc>
    <g id="Stockholm-icons-/-Devices-/-Tablet" stroke="none" stroke-width="1" fill="none" fill-rule="evenodd">
        <rect id="bound" x="0" y="0" width="24" height="24"></rect>
        <path d="M6.5,4 L6.5,20 L17.5,20 L17.5,4 L6.5,4 Z M7,2 L17,2 C18.1045695,2 19,2.8954305 19,4 L19,20 C19,21.1045695 18.1045695,22 17,22 L7,22 C5.8954305,22 5,21.1045695 5,20 L5,4 C5,2.8954305 5.8954305,2 7,2 Z" id="Combined-Shape" fill="#335EEA"></path>
        <polygon id="Combined-Shape" fill="#335EEA" opacity="0.3" points="6.5 4 6.5 20 17.5 20 17.5 4"></polygon>
    </g>
</svg>

<svg width="24" height="24" viewBox="0 0 24 24" xmlns="http://www.w3.org/2000/svg"><g fill="none" fill-rule="evenodd"><path d="M0 0h24v24H0z"/><path d="M6.5 4v16h11V4h-11zM7 2h10a2 2 0 012 2v16a2 2 0 01-2 2H7a2 2 0 01-2-2V4a2 2 0 012-2z" fill="#335EEA"/><path fill="#335EEA" opacity=".3" d="M6.5 4v16h11V4z"/></g></svg>
